app/assets/images/heroicons/micro/arrow-turn-down-right.svg

<svg width="16" height="16" viewBox="0 0 16 16" fill="none" xmlns="http://www.w3.org/2000/svg">
<path fill-rule="evenodd" clip-rule="evenodd" d="M2.75 2C3.16421 2 3.5 2.33579 3.5 2.75V9.25H11.4393L10.4697 8.28033C10.1768 7.98744 10.1768 7.51256 10.4697 7.21967C10.7626 6.92678 11.2374 6.92678 11.5303 7.21967L13.7803 9.46967C14.0732 9.76256 14.0732 10.2374 13.7803 10.5303L11.5303 12.7803C11.2374 13.0732 10.7626 13.0732 10.4697 12.7803C10.1768 12.4874 10.1768 12.0126 10.4697 11.7197L11.4393 10.75H2.75C2.33579 10.75 2 10.4142 2 10V2.75C2 2.33579 2.33579 2 2.75 2Z" fill="black"/>
</svg>

<svg xmlns="http://www.w3.org/2000/svg" viewBox="0 0 16 16" fill="currentColor" aria-hidden="true" data-slot="icon">
  <path fill-rule="evenodd" d="M2.75 2a.75.75 0 0 1 .75.75v6.5h7.94l-.97-.97a.75.75 0 0 1 1.06-1.06l2.25 2.25a.75.75 0 0 1 0 1.06l-2.25 2.25a.75.75 0 1 1-1.06-1.06l.97-.97H2.75A.75.75 0 0 1 2 10V2.75A.75.75 0 0 1 2.75 2Z" clip-rule="evenodd"/>
</svg>
